papirus/16x16/mimetypes/application-x-sqlite2.svg

<?xml version="1.0" encoding="UTF-8" standalone="no"?>
<svg
   xmlns:dc="http://purl.org/dc/elements/1.1/"
   xmlns:cc="http://creativecommons.org/ns#"
   xmlns:rdf="http://www.w3.org/1999/02/22-rdf-syntax-ns#"
   xmlns:svg="http://www.w3.org/2000/svg"
   xmlns="http://www.w3.org/2000/svg"
   xmlns:sodipodi="http://sodipodi.sourceforge.net/DTD/sodipodi-0.dtd"
   xmlns:inkscape="http://www.inkscape.org/namespaces/inkscape"
   id="svg2"
   height="16px"
   width="16px"
   version="1.1"
   viewBox="0 0 16 16"
   inkscape:version="0.91 r"
   sodipodi:docname="application-x-sqlite2.svg">
  <defs
     id="defs11" />
  <sodipodi:namedview
     pagecolor="#ffffff"
     bordercolor="#666666"
     borderopacity="1"
     objecttolerance="10"
     gridtolerance="10"
     guidetolerance="10"
     inkscape:pageopacity="0"
     inkscape:pageshadow="2"
     inkscape:window-width="1535"
     inkscape:window-height="876"
     id="namedview9"
     showgrid="false"
     inkscape:zoom="19.46"
     inkscape:cx="3.3065543"
     inkscape:cy="6.8600927"
     inkscape:window-x="65"
     inkscape:window-y="24"
     inkscape:window-maximized="1"
     inkscape:current-layer="svg2" />
  <metadata
     id="metadata17">
    <rdf:RDF>
      <cc:Work
         rdf:about="">
        <dc:format>image/svg+xml</dc:format>
        <dc:type
           rdf:resource="http://purl.org/dc/dcmitype/StillImage" />
        <dc:title></dc:title>
      </cc:Work>
    </rdf:RDF>
  </metadata>
  <path
     style="fill:#ebe8d7;fill-opacity:1"
     inkscape:connector-curvature="0"
     d="M 2.75,1 C 2.33276,1 2,1.33276 2,1.75 l 0,13.5 C 2,15.667192 2.332808,16 2.75,16 l 10.5,0 C 13.6676,16 14,15.6676 14,15.25 L 14,5.5 9.875,5.125 9.5,1 Z"
     id="path5" />
  <path
     style="fill:#f8f8f0;fill-opacity:1"
     inkscape:connector-curvature="0"
     d="m 9.5,1 0,3.75 c 0,0.41256 0.33744,0.75 0.75,0.75 l 3.75,0 z"
     id="path7" />
  <path
     style="opacity:0.5;fill:#000000;fill-opacity:1"
     d="M 7.5,7 C 6.45025,7 5.5566719,7.3907 5.1855469,7.9375 5.1514219,7.984433 5.1260629,8.031192 5.1015629,8.078125 5.0771879,8.125058 5.0595469,8.171817 5.0449219,8.21875 c -0.005,0.0156 -0.00684,0.030616 -0.011719,0.041016 -0.00975,0.036533 -0.018562,0.068409 -0.023437,0.099609 C 5.0048906,8.4063084 5,8.4530667 5,8.5 c 0,0.046933 0.00393,0.099551 0.013672,0.1464844 0.00487,0.0468 0.020406,0.093825 0.035156,0.140625 0.014625,0.046933 0.033234,0.093825 0.052734,0.140625 0.0245,0.046933 0.054734,0.087832 0.083984,0.1347656 C 5.5664219,9.6302334 6.484375,10 7.5,10 8.515625,10 9.433578,9.6302334 9.814453,9.0625 c 0.02925,-0.041733 0.04886,-0.078701 0.06836,-0.1152344 0.005,-0.0104 0.01077,-0.014991 0.01563,-0.025391 0.01462,-0.0312 0.02736,-0.068409 0.03711,-0.099609 0.0049,-0.0156 0.01466,-0.031142 0.01953,-0.046875 0.0099,-0.026 0.01661,-0.055898 0.02149,-0.082031 0.0049,-0.0208 0.0089,-0.042359 0.01367,-0.068359 C 9.995109,8.5832656 10,8.5416 10,8.5 10,8.447867 9.996048,8.4017431 9.986328,8.3496094 9.961948,8.2037428 9.902328,8.0677666 9.814453,7.9375 9.443328,7.3907 8.54975,7 7.5,7 Z M 5.1855469,10 C 5.0635469,10.171867 5,10.359275 5,10.546875 5,11.349275 6.118125,12 7.5,12 8.881875,12 10,11.349275 10,10.546875 10,10.359275 9.936453,10.171867 9.814453,10 9.433578,10.546933 8.5205,11 7.5,11 6.4795,11 5.5664219,10.546933 5.1855469,10 Z m 0,2 C 5.0635469,12.172 5,12.360208 5,12.546875 5,13.349541 6.118125,14 7.5,14 8.881875,14 10,13.348902 10,12.546875 10,12.360209 9.936453,12.172 9.814453,12 9.433578,12.546666 8.5205,13 7.5,13 6.4795,13 5.5664219,12.546666 5.1855469,12 Z"
     id="path4147"
     inkscape:connector-curvature="0" />
  <path
     style="fill:#ffffff;fill-opacity:0.2"
     inkscape:connector-curvature="0"
     d="M 2.75,1 C 2.33276,1 2,1.33276 2,1.75 l 0,0.6 C 2,1.93276 2.33276,1.6 2.75,1.6 l 6.75,0 0,-0.6 z"
     id="path11" />
</svg>

<?xml version="1.0" encoding="UTF-8" standalone="no"?>
<svg id="svg2" xmlns:rdf="http://www.w3.org/1999/02/22-rdf-syntax-ns#" xmlns="http://www.w3.org/2000/svg" height="16px" width="16px" version="1.1" xmlns:cc="http://creativecommons.org/ns#" viewBox="0 0 16 16" xmlns:dc="http://purl.org/dc/elements/1.1/">
 <metadata id="metadata17">
  <rdf:RDF>
   <cc:Work rdf:about="">
    <dc:format>image/svg+xml</dc:format>
    <dc:type rdf:resource="http://purl.org/dc/dcmitype/StillImage"/>
    <dc:title/>
   </cc:Work>
  </rdf:RDF>
 </metadata>
 <path id="path5" fill="#ccc" d="m2.75 1c-0.4172 0-0.75 0.3328-0.75 0.75v13.5c0 0.417 0.3328 0.75 0.75 0.75h10.5c0.418 0 0.75-0.332 0.75-0.75v-9.75l-4.125-0.375-0.375-4.125z"/>
 <path id="path7" fill="#f8f8f0" d="m9.5 1v3.75c0 0.41256 0.33744 0.75 0.75 0.75h3.75z"/>
 <path id="path4147" opacity=".5" d="m7.5 7c-1.0498 0-1.9433 0.3907-2.3145 0.9375-0.0341 0.0469-0.0594 0.0937-0.0839 0.1406-0.0244 0.047-0.0421 0.0937-0.0567 0.1407-0.005 0.0156-0.00684 0.030616-0.011719 0.041016-0.00975 0.036533-0.018562 0.068409-0.023437 0.099609-0.0048 0.0469-0.0097 0.0937-0.0097 0.1406 0 0.046933 0.00393 0.099551 0.013672 0.14648 0.00487 0.0468 0.020406 0.093825 0.035156 0.14062 0.014625 0.046933 0.033234 0.093825 0.052734 0.14062 0.0245 0.046933 0.054734 0.087832 0.083984 0.13477 0.3809 0.5677 1.2989 0.9375 2.3145 0.9375s1.9336-0.3698 2.3145-0.9375c0.02925-0.041733 0.04886-0.078701 0.06836-0.11523 0.005-0.0104 0.01077-0.014991 0.01563-0.025391 0.01462-0.0312 0.02736-0.068409 0.03711-0.099609 0.0049-0.0156 0.01466-0.031142 0.01953-0.046875 0.0099-0.026 0.01661-0.055898 0.02149-0.082031 0.0049-0.0208 0.0089-0.042359 0.01367-0.068359 0.0048-0.0417 0.0097-0.0834 0.0097-0.125 0-0.0521-0.004-0.0983-0.0137-0.1504-0.0244-0.1459-0.084-0.2818-0.1718-0.4121-0.3712-0.5468-1.2647-0.9375-2.3145-0.9375zm-2.3145 3c-0.122 0.172-0.1855 0.359-0.1855 0.547 0 0.802 1.1181 1.453 2.5 1.453s2.5-0.651 2.5-1.453c0-0.188-0.0635-0.375-0.1855-0.547-0.3809 0.547-1.294 1-2.3145 1s-1.9336-0.453-2.3145-1zm0 2c-0.122 0.172-0.1855 0.36-0.1855 0.547 0 0.803 1.1181 1.453 2.5 1.453s2.5-0.651 2.5-1.453c0-0.187-0.0635-0.375-0.1855-0.547-0.3809 0.547-1.294 1-2.3145 1s-1.9336-0.453-2.3145-1z"/>
 <path id="path11" fill-opacity=".2" fill="#fff" d="m2.75 1c-0.4172 0-0.75 0.3328-0.75 0.75v0.6c0-0.4172 0.3328-0.75 0.75-0.75h6.75v-0.6z"/>
</svg>
